X: 20074
T: Jimmy McGettrick's
R: reel
M: 4/4
K: Dmajor
|:BAFB ADFA|BAFA Bcde|BAFB ADFA|1 GEFD E3d:|2 GEFD E2GB||
|:e2ge Bege|e2ag faaf|efge Bege|1 faag fedB:|2 faag fedA||
|:BddA BdAF|GFGA BEE2|BddA BdAF|1 GBAG FDD2:|2 GBAG FDDd||

